X:1
T:Title
%%score { ( 1 3 ) | 2 }
L:1/8
M:6/8
K:Ab
V:1 treble nm="Grand Piano"
V:3 treble 
V:2 bass 
V:1
 z3 z2[Q:1/4=93] [CE] | [CE][A,C][B,D] [CE]2 [CE] | [Ec]3- [Ec]2 [EB] | [FA][=EG][FA] [_EG]2 [DF] | %4
 [CE]3- [CE]2 [CE] | F=EF [FA][EG][DF] | [DF][CE][CE] [CE]2 [CE] | [DF][FA][FA] [=Dc]2 [DB] | %8
 B3 d3 | z3 .[CA]3[K:bass][K:treble] | [DG]6[K:bass][K:treble] | G[Gd][Gd] d-[Fd]d | c6 | %13
 [Ec][=D_c][E=c] [Ee]2 [Ec] |[M:7/8] [Fe][Fd][Fd] [Fd]3 [DF] | %15
[M:3/4] [CE][Fd] [Fd] [Ec]2 [DB][Q:1/4=90][Q:1/4=87][Q:1/4=84][Q:1/4=81][Q:1/4=78][Q:1/4=76][Q:1/4=73] | %16
[M:5/8] [CA]-[CA]- [CA]3 |] %17
V:2
 z3 z2 [A,,A,] | [A,,A,][A,,E,][A,,E,] [A,,A,]2 [A,,A,] | [A,,A,]3- [A,,A,]2 [C,A,] | %3
 [D,D][D,D][D,D] [D,A,]2 [D,A,] | [A,,A,]3- [A,,A,]2 [A,,A,] | %5
 [D,A,D][D,G,D][D,A,D] [D,D][D,A,][D,A,] | [A,,A,][A,,A,][A,,A,] [A,,A,]2 [A,,A,] | %7
 [D,A,][D,A,][D,A,] [B,,A,]2 [B,,A,] | [E,G,E]6 | [A,,A,][A,,A,][A,,A,] .[A,,E,]2 [A,,E,] | %10
 [B,,E,]2 B,, E,2 [E,B,D] | [E,B,D][E,B,][E,B,] [E,B,][E,B,][G,B,E] | [A,E]2 A, A,2 [A,,A,] | %13
 [A,,A,][A,,A,][A,,A,] [A,,C]2 [A,,A,] |[M:7/8] [D,A,][D,A,][D,A,] [D,A,]3 [D,A,] | %15
[M:3/4] [E,A,][E,G,] [E,G,] [E,A,]2 [E,G,] |[M:5/8] [A,,A,]-[A,,A,]- [A,,A,]3 |] %17
V:3
 x6 | x6 | x6 | x6 | x6 | x6 | x6 | x6 | x6 | [Ec][DG][CB] z[K:bass] [A,,E,][K:treble][CF] | %10
 z2[K:bass] E, B,2[K:treble] G | z3 .F3 | z2 F E2 [Ec] | x6 |[M:7/8] x7 |[M:3/4] x6 |[M:5/8] x5 |] %17

